packages/icons/svg/Fill/video.svg

<svg width="24" height="24" viewBox="0 0 24 24" fill="none" xmlns="http://www.w3.org/2000/svg">
<g id="Icon/Fill/video">
<path id="Mask" fill-rule="evenodd" clip-rule="evenodd" d="M21.0118 7.14539C20.3858 6.87339 19.6598 6.99139 19.1608 7.45139L16.9998 9.45139V7.99939C16.9998 6.34539 15.6548 4.99939 13.9998 4.99939H4.99976C3.34576 4.99939 1.99976 6.34539 1.99976 7.99939V15.9994C1.99976 17.6544 3.34576 18.9994 4.99976 18.9994H13.9998C15.6548 18.9994 16.9998 17.6544 16.9998 15.9994V14.5484L19.1608 16.5474C19.4818 16.8444 19.8968 16.9994 20.3198 16.9994C20.5528 16.9994 20.7878 16.9524 21.0118 16.8544C21.6208 16.5884 21.9998 16.0194 21.9998 15.3704V8.62939C21.9998 7.98039 21.6208 7.41139 21.0118 7.14539Z" fill="#000000"/>
</g>
</svg>

<svg fill="none" height="24" viewBox="0 0 24 24" width="24" xmlns="http://www.w3.org/2000/svg"><path clip-rule="evenodd" d="m21.0117 7.14551c-.626-.272-1.352-.154-1.851.306l-2.161 2v-1.452c0-1.654-1.345-3-3-3h-9.00001c-1.654 0-3 1.346-3 3v7.99999c0 1.655 1.346 3 3 3h9.00001c1.655 0 3-1.345 3-3v-1.451l2.161 1.999c.321.297.736.452 1.159.452.233 0 .468-.047.692-.145.609-.266.988-.835.988-1.484v-6.74099c0-.649-.379-1.218-.988-1.484" fill="#6b7280" fill-rule="evenodd"/></svg>
